svgs/duotone/arrow-down-to-bracket.svg

<svg xmlns="http://www.w3.org/2000/svg" viewBox="0 0 448 512"><!-- Font Awesome Pro 6.0.0-alpha2 by @fontawesome - https://fontawesome.com License - https://fontawesome.com/license (Commercial License) --><defs><style>.fa-secondary{opacity:.4}</style></defs><path d="M448 416V352C448 334.326 433.672 320 416 320S384 334.326 384 352V416C384 433.674 369.672 448 352 448H96C78.328 448 64 433.674 64 416V352C64 334.326 49.672 320 32 320S0 334.326 0 352V416C0 469.02 42.98 512 96 512H352C405.02 512 448 469.02 448 416Z" class="fa-secondary"/><path d="M201.375 342.625L73.375 214.625C60.875 202.125 60.875 181.875 73.375 169.375S106.125 156.875 118.625 169.375L192 242.75V32C192 14.312 206.312 0 224 0S256 14.312 256 32V242.75L329.375 169.375C341.875 156.875 362.125 156.875 374.625 169.375C387.117 181.867 387.133 202.117 374.625 214.625L246.625 342.625C234.125 355.125 213.875 355.125 201.375 342.625Z" class="fa-primary"/></svg>

<svg xmlns="http://www.w3.org/2000/svg" viewBox="0 0 448 512"><!--! Font Awesome Pro 6.3.0 by @fontawesome - https://fontawesome.com License - https://fontawesome.com/license (Commercial License) Copyright 2023 Fonticons, Inc. --><defs><style>.fa-secondary{opacity:.4}</style></defs><path class="fa-primary" d="M201.4 342.6l-128-128c-12.5-12.5-12.5-32.75 0-45.25s32.75-12.5 45.25 0L192 242.8V32c0-17.69 14.31-32 32-32s32 14.31 32 32v210.8l73.38-73.38c12.5-12.5 32.75-12.5 45.25 0c12.49 12.49 12.51 32.74 0 45.25l-128 128C234.1 355.1 213.9 355.1 201.4 342.6z"/><path class="fa-secondary" d="M448 416v-64c0-17.67-14.33-32-32-32s-32 14.33-32 32v64c0 17.67-14.33 32-32 32H96c-17.67 0-32-14.33-32-32v-64c0-17.67-14.33-32-32-32s-32 14.33-32 32v64c0 53.02 42.98 96 96 96h256C405 512 448 469 448 416z"/></svg>
